X: 533
%
U:~=!turn!
T: Orkney
C:
O:Scotland
B:Keith Norman MacDonald : "The Skye collection of the best reels & strathspeys extant" : 1887
Z:Ralph Palmer
R:Reel
M:C
L:1/8
K:D
A, | DD(FE) {FE}D2 DB, | A,2 (A,F) EDEF | DD TFE {FE}D2 DB, | A,A,A,B, {FE}D2 D:: A | ddfe {/c}d2 dB |
{cB}A2 Af {gf}edef | [1 ddfe {/c}d2 dB | AFAB {/c}d2 d :| [2 afge fdec | {/c}dBAF EDEF |]


